X:122
T:Tony Low's
B:Terry "Cuz" Teahan "Sliabh Luachra on Parade" 1980
Z:Patrick Cavanagh
M:2/4
L:1/8
R:Polka
K:G
| ef ed | Bd G2 | ef ed | ea ag | 
ef ed | Bd GA | B/c/d gB | A2 A2 :| 
| ea ab | ag ed | ea ab | a2 af | 
g2 ge | dB GA | Be dB | A2 A2 :|| 

